!!!COM: Henri Duparc
!!!CNT: Francais
!!!TXO: Francais
!!!OTL: Au Pays ou\ se Fait la Guerre
!!!LYR: The/ophile Gautier
!!!ENC: Jacob Pegg
!!!YOR: Henri Duparc: Complete Songs for Voice and Piano
!!!YOR: New York: Dover publications, inc., 1995 
!!!YOR: ISBN 0-486-28466-2
!!!ODT: 1870/
!!NB: Vocal melody and text only encoded.
**kern	**silbe
*clef G2	*
*k[b-e-a-d-]	*
*M2/4	*
*MM80	*
!!created: 6/21/03 15:45
!!proofed and posted: 7/17/03 23:04
=6	=6
4r	.
{8a-	{Au
8b-	pa-
=7	=7
4cc	-ys
8cc	ou\
8cc	se
=8	=8
4ee-	fait
4ee-	la
=9	=9
[4cc	guer-
(16cc]	|
16b-	|
16a-	|
16b-)	|
=10	=10
4cc}	-re}
{4f	{Mon
=11	=11
(4g	bel
8a-)	|
8b-	a-
=12	=12
4cc	-mi
[4c	s'en
=13	=13
4c]	|
8e-	est
8d-	al-
=14	=14
[2cc	-le/.
=15	=15
4cc]}	|}
4r	.
=16	16
4r	.
{4cc	{Il
=17	=17
4ee-	semble
8ee-	a\
8ee-	mon
=18	=18
[(4cc	coeur
16cc]	|
16b-)	|
16a-	de-
16b-	-so-
=19	=19
4cc}	-le/}
{8f	{Qu'il
8g	ne
=20	=20
4a-	res-
8cc	-te
8ff	que
=21	=21
4een	moi
4cc	sur
=22	=22
2g	ter-
=23	=23
8g}	-re.}
8r	.
{8en	{En
8en	par-
=24	=24
4g	-tant
8g	au
8g	bai-
=25	=25
4.cc	-ser
8cc	d'a-
=26	=26
[2cc	-dieu,
=27	=27
8cc]}	|}
8r	.
{8an	{Il
8an	m'a
=28	=28
8cc	pris
8cc	mon
[4een	a^-
=29	=29
4een]	-me
8een	a\
8een	ma
=30	=30
(4.een	bou-
8ddn)	|
=31	=31
4cc}	-che...}
4r	.
=32	=32
4r	.
{8ff	{Qui
8ff	le
=33	=33
4aa-	tient
8a-	si
8a-	long-
=34	=34
4.dd-	-temps,
8cc	Mon
=35	=35
4cc}	Dieu?}
8r	.
{8een	{Voi-
=36	=36
4ff	-la\
8f	le
8f	so-
=37	=37
4a-	-leil
8dd-	qui
8dd-	se
=38	=38
2dd-	cou-
=39	=39
4cc}	-che,}
4r	.
=40	=40
4r	.
{4cc	{Et
=41	=41
4ee-	moi
8ee-	tou-
8ee-	-te
=42	=42
[(4cc	seule
16cc]	|
16b-)	|
16a-	en
16b-	ma
=43	=43
4cc}	tour}
8r	.
{8f	{J'at-
=44	=44
(4g-	-tends
8a-)	|
8b-	en-
=45	=45
4cc	-co-
8c}	-re}
8r	.
=46	=46
8r	.
{4cc	{son
8b-	re-
=47	=47
2cc;}	-tour.}
!!48-52 rest
=53	=53
*MM90	*
4r	.
{8a-	{Les
8b-	pi-
=54	=54
4cc	-geons
8cc	sur
8cc	le
=55	=55
4ee-	toit
4ee-	rou-
=56	=56
[(4cc	-cou-
16cc]	|
16b-)	|
16a-	|
16b-	|
=57	=57
4cc}	-lent}
8r	.
{8cc	{Rou-
=58	=58
4dd-	-cou-
4dd-	-lent
=59	=59
8cc	a-
8cc	-mou-
8an	-reu-
8an	-se-
=60	=60
[2cc	-ment,
=61	=61
4cc]}	|}
4r	.
=62	=62
8r	.
{8cc	{A-
8cc	-vec
8cc	un
=63	=63
4cc	son
[4ee-	triste
=64	=64
4ee-]	|
8ee-	et
8ee-	char-
=65	=65
4ccn}	-mant;}
8r	.
{8ccn	{Les
=66	=66
8dd-	eaux
8dd-	sous
8ee-	les
8ee-	grands
=67	=67
4een	sau-
4cc	-les
=68	=68
2g	cou-
=69	=69
8g}	-lent...}
8r	.
{8en	{Je
8en	me
=70	=70
4.g	sens
8g	tout
=71	=71
4cc	pre\s
8cc	de
8cc	pleu-
=72	=72
[2cc	-rer,
=73	=73
8cc]}	|}
8r	.
{4an	{Mon
=74	=74
8cc	coeur
8cc	com-
8cc	-me un
8een	lys
=75	=75
4.een	plein
8een	s'e/-
=76	=76
(4.een	-pan-
8ddn)	|
=77	=77
8cc}	-che,}
8r	.
{8cc	{Et
8cc	je
=78	=78
4.aa-	n'o-
8a-	-se
=79	=79
4a-	plus
8dd-	es-
8dd-	-pe/-
=80	=80
[2dd-	-rer.
=81	=81
8dd-]}	|}
8r	.
8r	.
{8een	{Voi-
=82	=82
8ff	-ci
8ff	bril-
[4ff	-ler
=83	=83
8ff]	|
8cc	la
8dd-	lu-
8dd-	-ne
=84	=84
(2dd-	blan-
=85	=85
8cc)}	-che,}
8r	.
4r	.
=86	=86
4r	.
{4c	{Et
=87	=87
4ee-	moi
8ee-	tou-
8ee-	-te
=88	=88
[(4cc	seule
16cc]	|
16b-)	|
16a-	en
16b-	ma
=89	=89
4cc}	tour}
8r	.
{8f	{J'at
=90	=90
(4g-	tends
8a-)	|
8b-	en-
=91	=91
4cc	-co-
4c	-re
=92	=92
8r	.
4e-	son
8d-	re-
=93	=93
[4c	-tour
8c]}	|}
8r	.
=94	=94
*MM96	*
2r	.
=95	=95
2r	.
=96	=96
8r	.
{8f	{Quel-
8f}	-qu'un}
8r	.
=97	=97
2r	.
=98	=98
8r	.
{8f	{monte
8a-	a\
8a-	grands
=99	=99
8cc	pas
8cc	la
[4dd-	ram-
=100	=100
4dd-]	|
16cc}	pe}
16r	.
16r	.
{16cc	{Se-
=101	=101
4.ee-	-rait
8dd-	ce
=102	=102
4.cc	lui,
8cc	mon
=103	=103
4.ee-	doux
8dd-	a-
=104	=104
[2cc	-mant?
=105	=105
4cc]}	|}
4r	.
=106	=106
2r	.
=107	=107
2r	.
=108	=108
*MM[lento]	*
2r	.
=109	=109
8r	.
{8a-	{Ce
8a-	n'est
8a-	pas
=110	=110
*MM80	*
4a-	lui,
12f	mais
12f	seu-
12g	-le-
=111	=111
8a-	-ment
8a-	mon
8b-	pe-
8b-	-tit
=112	=112
8cc	page
8g	a-
8g	-vec
8g	ma
=113	=113
2g	lam-
=114	=114
8g}	-pe...}
8r	.
12r	.
{12en	{Vents
12en	du
=115	=115
4.g	soir,
8cc	vo-
=116	=116
[2cc	-lez,
=117	=117
8cc]}	|}
8r	.
{8cc	{Di-
8cc	-tes~
=118	=118
4.cc	~lui
8cc	Qu'il
=119	=119
6g	est
6g	ma
6een	pen-
=120	=120
6een	-se/e
6een	et
6dd	mon-
=121	=121
2cc	re^-
=122	=122
8cc}	-ve,}
8r	.
{12cc	{Tou-
12cc	-te
12cc	ma
=123	=123
2aa-	joie
=124	=124
4a-	et
8a-	mon
8dd-	en-
=125	=125
[2dd-	-nui
=126	=126
8dd-]}	|}
8r	.
8r	.
{8een	{Voi-
=127	=127
4ff	-ci
8ff	que
8ff	l'au-
=128	=128
4ff	-ro-
8ff	-re
8dd-	se
=129	=129
2dd-	le\-
=130	=130
8dd-}	-ve,}
8r	.
4r	.
=131	=131
4r	.
{4cc	{Et
=132	=132
4ee-	moi
8ee-	tou-
8ee-	-te
=133	=133
([4cc	seule
16cc]	|
16b-)	|
16a-	en
16b-	ma
=134	=134
4cc}	tour}
8r	.
{8f	{J'at-
=135	=135
(4g-	-tends
8a-)	|
8b-	en-
=136	=136
4cc	-co-
4cc	-re
=137	=137
8r	.
4ee-	son
8dd-	re-
=138	=138
2cc}	tour.}
*-	*-
